public/movement.svg

<svg width="142" height="18" viewBox="0 0 142 18" fill="none" xmlns="http://www.w3.org/2000/svg">
<mask id="mask0_462_5285" style="mask-type:luminance" maskUnits="userSpaceOnUse" x="0" y="0" width="142" height="18">
<path d="M141.5 0H0.5V18H141.5V0Z" fill="white"/>
</mask>
<g mask="url(#mask0_462_5285)">
<path d="M20.4168 8.63654C20.2153 8.63654 20.0167 8.60578 19.827 8.5455L19.8032 8.53843C19.782 8.53237 19.7595 8.52532 19.7344 8.51672C19.6781 8.49755 19.6168 8.46957 19.548 8.43224L19.5255 8.42013C19.2744 8.28973 19.051 8.10206 18.8791 7.87709C18.3542 7.19081 18.3557 6.23388 18.8832 5.54984C19.0975 5.27166 19.3829 5.057 19.7088 4.92887L19.741 4.91552C19.8392 4.87416 19.9106 4.8517 19.9666 4.84463L20.0284 4.83454C20.1556 4.80881 20.2862 4.7957 20.4171 4.7957C21.2041 4.7957 21.8614 4.55382 22.3176 4.09654C22.7399 3.67333 22.96 3.0907 22.9544 2.41147V0H18.1471V1.58949C18.1471 1.89897 18.1462 2.20844 18.1471 2.51793C18.1482 3.14369 17.7915 3.99794 17.1375 4.21537C16.7212 4.35384 16.2046 4.14702 15.7624 4.19772C15.399 4.23934 15.0465 4.36291 14.7374 4.55739C14.1162 4.94808 13.6965 5.61268 13.6159 6.33983C13.5847 6.62031 13.6022 6.82939 13.6151 6.98225C13.6293 7.1525 13.6336 7.20371 13.5738 7.37344C13.4561 7.70486 13.2046 8.01283 12.8658 8.24032C12.527 8.46782 12.1375 8.59292 11.7688 8.59292L11.7328 8.59241L11.6968 8.59292C11.3281 8.59292 10.9383 8.46782 10.5998 8.24032C10.261 8.01308 10.0095 7.70486 9.8918 7.37344C9.83198 7.20369 9.83603 7.15224 9.85048 6.98225C9.86316 6.82966 9.88065 6.62057 9.84971 6.33983C9.76907 5.61268 9.3494 4.94834 8.72814 4.55739C8.41903 4.36291 8.06656 4.23934 7.70319 4.19772C7.26096 4.14702 6.74443 4.35385 6.32803 4.21537C5.67405 3.99796 5.31727 3.14369 5.31855 2.51793C5.3193 2.20844 5.31855 1.89897 5.31855 1.58949V0H0.510438V2.41148C0.504861 3.09072 0.725211 3.67335 1.14716 4.09656C1.60335 4.5541 2.26063 4.79571 3.04773 4.79571C3.17858 4.79571 3.30915 4.80883 3.43647 4.83456L3.4981 4.84465C3.55413 4.85197 3.62563 4.8744 3.72378 4.91553L3.75596 4.92889C4.08182 5.05702 4.36734 5.27168 4.58161 5.54986C5.10905 6.23388 5.11058 7.19081 4.58566 7.87711C4.41373 8.10208 4.19008 8.28974 3.9393 8.42014L3.91671 8.43226C3.848 8.46959 3.78663 8.49733 3.73033 8.51674C3.70522 8.52533 3.68267 8.53239 3.66162 8.53844L3.63777 8.54552C3.44809 8.60605 3.24954 8.63656 3.04796 8.63656C1.52395 8.63656 0.5 9.56877 0.5 10.9562C0.5 12.0393 0.996508 12.6012 1.41288 12.8819C1.92105 13.2245 2.53395 13.3216 3.12072 13.375L3.16131 13.3796C3.31699 13.3998 3.44835 13.4315 3.59924 13.4855L3.672 13.513L3.68442 13.5175C4.0795 13.6517 4.41041 13.9259 4.61658 14.2896C4.73298 14.4951 4.8136 14.7643 4.84354 15.047C4.8552 15.1582 4.86306 15.2659 4.87067 15.3724C4.87649 15.4533 4.88309 15.5441 4.89198 15.6354V17.7243H9.66533V15.2647C9.66533 14.6326 9.42341 14.0194 8.97406 13.5725C8.95784 13.5564 8.94161 13.5407 8.92486 13.5251C8.8891 13.4918 8.85615 13.4635 8.82977 13.4411L8.81355 13.4272C8.29624 12.9813 7.62351 12.9694 7.13207 12.9606H7.12676C7.04459 12.9591 6.96674 12.9576 6.89802 12.9543L6.82424 12.943L6.66625 12.9079L6.51741 12.8622L6.35688 12.7987C6.18878 12.7228 6.03179 12.6239 5.89259 12.5061L5.86141 12.4794C5.41662 12.0839 5.19601 11.5963 5.18689 10.9892C5.18815 10.5554 5.32761 10.1443 5.59034 9.80003C5.84647 9.46458 6.20931 9.21488 6.61201 9.09682C7.01976 8.97751 7.78025 8.97449 8.14692 9.09103C8.81509 9.30315 9.28929 9.91302 9.32656 10.6086C9.3296 10.6662 9.32732 10.7264 9.32479 10.797C9.31718 11.0011 9.30678 11.2806 9.4252 11.6339C9.75991 12.6166 10.6857 13.2797 11.732 13.2842C12.7783 13.2794 13.7041 12.6166 14.0388 11.6339C14.1572 11.2808 14.1468 11.0013 14.1392 10.797C14.1367 10.7264 14.1344 10.6659 14.1374 10.6086C14.1747 9.91302 14.6486 9.30315 15.3171 9.09103C15.684 8.97451 16.4442 8.97753 16.852 9.09682C17.2546 9.21486 17.6177 9.46482 17.8736 9.80003C18.1364 10.1443 18.2758 10.5554 18.2771 10.9892C18.2679 11.5963 18.0473 12.0836 17.6026 12.4794L17.5714 12.5061C17.4321 12.6236 17.2753 12.7228 17.1071 12.7987L16.9465 12.8622L16.7977 12.9079L16.6397 12.943L16.566 12.9543C16.4975 12.9576 16.4194 12.9591 16.3372 12.9606H16.3319C15.8407 12.9694 15.1677 12.9813 14.6504 13.4272L14.6342 13.4411C14.6078 13.4635 14.5749 13.4918 14.5391 13.5251C14.5224 13.5407 14.5062 13.5566 14.4899 13.5725C14.0406 14.0194 13.7987 14.6326 13.7987 15.2647V17.7243H18.5721V15.6354C18.581 15.5444 18.5875 15.4533 18.5933 15.3724C18.601 15.2662 18.6087 15.1585 18.6204 15.047C18.6504 14.7643 18.7311 14.4951 18.8474 14.2896C19.0533 13.9259 19.3844 13.6517 19.7796 13.5175L19.792 13.513L19.8648 13.4855C20.0156 13.4318 20.1469 13.4 20.3026 13.3796L20.3432 13.375C20.93 13.3216 21.5429 13.2245 22.0511 12.8819C22.4674 12.6012 22.9641 12.0393 22.9641 10.9562C22.9641 9.56877 21.9409 8.63654 20.4168 8.63654Z" fill="#B0B0B5"/>
<path d="M53.2433 17.7232L53.2448 17.7245H50.2651V4.89075C50.2651 4.23793 49.3316 4.1182 49.1652 4.74876L45.7383 17.7245H40.0796L36.6514 4.74876C36.485 4.1182 35.5515 4.23793 35.5515 4.89075V17.7245H32.5718V0.240234H38.4612L42.3758 15.3123C42.5198 15.8691 43.315 15.8691 43.4589 15.3123L47.354 0.240234H53.2433V17.7232ZM66.7789 11.5122C66.7789 15.3304 64.3541 18.0002 60.4967 18.0002C56.6394 18.0002 54.2371 15.354 54.2371 11.5122C54.2371 7.6941 56.6619 5.04799 60.4967 5.04799C64.3316 5.04799 66.7789 7.6941 66.7789 11.5122ZM63.823 11.5122C63.823 8.7979 62.6449 7.07189 60.4967 7.07189C58.3486 7.07189 57.1705 8.79792 57.1705 11.5122C57.1705 14.2265 58.371 15.9748 60.4967 15.9748C62.6225 15.9748 63.823 14.2488 63.823 11.5122ZM76.2711 5.32503V5.32642L73.1559 15.6185C72.9953 16.1447 72.2461 16.1461 72.0855 15.6185L68.9493 5.32503H66.0618L69.9192 17.7245H75.3237L79.1809 5.32503H76.2711ZM90.6844 11.4426C90.6844 11.7182 90.6605 12.0412 90.6144 12.3627V12.3641H82.0655C81.7119 12.3641 81.4506 12.687 81.5176 13.0336C81.8978 14.9838 83.0494 15.9762 84.6315 15.9762C86.2136 15.9762 87.0339 15.2635 87.4727 14.0665H90.4063C89.6208 16.7127 87.5189 18.0002 84.6091 18.0002C80.7979 18.0002 78.4876 15.2858 78.4876 11.5123C78.4876 7.73867 80.8664 5.04801 84.6091 5.04801C88.3519 5.04801 90.6844 7.57856 90.6844 11.4426ZM87.6321 9.68597C87.2939 8.0908 86.1743 7.07328 84.6077 7.07328C83.041 7.07328 82.0082 7.91264 81.5736 9.67206C81.4869 10.0229 81.7538 10.3625 82.1172 10.3625H87.0856C87.442 10.3625 87.7061 10.034 87.6321 9.68597ZM105.929 5.04799C104.253 5.04799 103.158 5.92771 102.504 7.01343C102.28 7.38229 101.75 7.37951 101.534 7.00647C100.892 5.89988 99.7784 5.04799 98.1446 5.04799C96.8826 5.04799 95.9699 5.52961 95.3228 6.23672C94.9806 6.60978 94.3558 6.36202 94.3558 5.85674V5.32501H91.4922V17.7246H94.3795V10.524C94.3795 8.15485 95.2335 7.09697 96.8504 7.09697C98.4673 7.09697 99.299 8.15485 99.299 10.478V17.7245H102.186V10.524C102.186 8.15483 103.04 7.09695 104.657 7.09695C106.274 7.09695 107.106 8.15483 107.106 10.478V17.7245H109.993V9.92539H109.995C109.995 7.09557 108.701 5.04799 105.929 5.04799ZM122.904 11.4426C122.904 11.7182 122.88 12.0412 122.834 12.3627V12.3641H114.285C113.932 12.3641 113.67 12.687 113.737 13.0336C114.118 14.9838 115.269 15.9762 116.851 15.9762C118.433 15.9762 119.254 15.2635 119.692 14.0665H122.626C121.84 16.7127 119.739 18.0002 116.829 18.0002C113.018 18.0002 110.708 15.2858 110.708 11.5123C110.708 7.73867 113.086 5.04801 116.829 5.04801C120.572 5.04801 122.904 7.57856 122.904 11.4426ZM119.852 9.68597C119.514 8.0908 118.394 7.07328 116.827 7.07328C115.261 7.07328 114.228 7.91264 113.793 9.67206C113.707 10.0229 113.974 10.3625 114.337 10.3625H119.305C119.662 10.3625 119.926 10.034 119.852 9.68597ZM130.527 5.04943C129.204 5.04943 128.233 5.53661 127.547 6.26461C127.197 6.63487 126.576 6.39685 126.576 5.88879V5.32505H123.712V17.7245H126.599V10.524C126.599 8.15489 127.593 7.09699 129.232 7.09699C130.872 7.09699 131.865 8.13124 131.865 10.4781V17.7245H134.753V9.92683C134.753 7.16521 133.39 5.04943 130.527 5.04943ZM140.184 15.5865L140.185 15.5851C139.123 15.5851 138.498 15.2399 138.498 14.0442V7.99894C138.498 7.69133 138.748 7.44216 139.057 7.44216H141.454V5.3264H139.057C138.748 5.3264 138.498 5.07723 138.498 4.76961V2.38242H135.611V14.1834C135.611 16.5985 137.39 17.7258 139.699 17.7258H141.5V15.5865H140.184Z" fill="#B0B0B5"/>
</g>
</svg>

<svg xmlns="http://www.w3.org/2000/svg" width="142" height="18" fill="none"><mask id="a" width="142" height="18" x="0" y="0" maskUnits="userSpaceOnUse" style="mask-type:luminance"><path fill="#fff" d="M141.5 0H.5v18h141z"/></mask><g fill="#B0B0B5" mask="url(#a)"><path d="M20.417 8.637q-.304 0-.59-.091l-.024-.008-.069-.021a1 1 0 0 1-.186-.085l-.022-.012a1.913 1.913 0 0 1-.642-2.87c.213-.278.499-.493.825-.621l.032-.013a1 1 0 0 1 .226-.071l.061-.01q.192-.04.39-.04c.786 0 1.443-.241 1.9-.698.422-.424.642-1.006.636-1.686V0h-4.807v2.518c.001.626-.355 1.48-1.01 1.697-.416.139-.932-.068-1.375-.017a2.44 2.44 0 0 0-2.146 2.142 3 3 0 0 0 0 .642c.013.17.018.222-.042.391-.118.332-.37.64-.708.867a2 2 0 0 1-1.097.353h-.072A2 2 0 0 1 10.6 8.24c-.339-.227-.59-.535-.708-.867-.06-.17-.056-.22-.042-.39.013-.153.03-.362 0-.643a2.44 2.44 0 0 0-2.147-2.142c-.442-.051-.959.156-1.375.017-.654-.217-1.01-1.071-1.01-1.697V0H.51v2.411c-.005.68.215 1.262.637 1.686.456.457 1.114.699 1.9.699q.198 0 .39.039l.061.01a1 1 0 0 1 .226.07l.032.014a1.913 1.913 0 0 1 .183 3.491l-.022.012a1.2 1.2 0 0 1-.255.106l-.024.008q-.286.09-.59.09C1.524 8.637.5 9.57.5 10.957c0 1.083.497 1.645.913 1.926.508.343 1.12.44 1.708.493l.04.005c.156.02.287.051.438.105l.073.028.012.005c.396.134.726.408.933.772a2 2 0 0 1 .227.757q.016.166.027.325c.005.081.012.172.021.263v2.09h4.773v-2.46a2.38 2.38 0 0 0-.835-1.824l-.016-.014c-.518-.446-1.19-.458-1.682-.466h-.005l-.229-.007-.074-.011-.158-.035-.149-.046-.16-.063a2 2 0 0 1-.464-.293l-.032-.027c-.444-.395-.665-.883-.674-1.49.001-.434.14-.845.403-1.189a2 2 0 0 1 1.022-.703c.408-.12 1.168-.123 1.535-.006a1.7 1.7 0 0 1 1.18 1.518q.003.084-.002.188a2.2 2.2 0 0 0 .1.837 2.44 2.44 0 0 0 2.307 1.65 2.44 2.44 0 0 0 2.307-1.65 2.2 2.2 0 0 0 .1-.837q-.005-.104-.002-.188a1.7 1.7 0 0 1 1.18-1.518c.367-.116 1.127-.113 1.535.006.403.118.766.368 1.022.703.262.344.402.755.403 1.19-.01.606-.23 1.094-.674 1.49l-.032.026q-.21.178-.464.293l-.16.063-.15.046-.157.035-.074.011-.229.007h-.005c-.491.008-1.164.02-1.682.466l-.016.014q-.04.033-.095.084l-.05.047a2.38 2.38 0 0 0-.69 1.693v2.46h4.773v-2.09c.009-.09.015-.182.021-.263q.011-.158.027-.325c.03-.283.111-.552.227-.757.206-.364.537-.638.933-.772l.012-.005.073-.027c.15-.054.282-.086.438-.106l.04-.005c.587-.053 1.2-.15 1.708-.493.416-.28.913-.843.913-1.926 0-1.387-1.023-2.32-2.547-2.32m32.826 9.086.002.002h-2.98V4.89c0-.653-.933-.773-1.1-.142l-3.427 12.975H40.08L36.65 4.75c-.166-.63-1.1-.511-1.1.142v12.833h-2.98V.24h5.89l3.915 15.072c.144.557.939.557 1.083 0L47.354.24h5.89zm13.536-6.21c0 3.817-2.425 6.487-6.282 6.487s-6.26-2.646-6.26-6.488c0-3.818 2.425-6.464 6.26-6.464s6.282 2.646 6.282 6.464m-2.956 0c0-2.715-1.178-4.441-3.326-4.441s-3.327 1.726-3.327 4.44 1.201 4.463 3.327 4.463 3.326-1.726 3.326-4.463m12.448-6.188-3.115 10.292c-.16.527-.91.528-1.07 0l-3.137-10.29h-2.887l3.857 12.4h5.405l3.857-12.4zm14.413 6.118c0 .275-.023.598-.07.92v.001h-8.549a.56.56 0 0 0-.547.67c.38 1.95 1.531 2.942 3.114 2.942s2.402-.713 2.84-1.91h2.934C89.621 16.714 87.52 18 84.61 18c-3.811 0-6.121-2.714-6.121-6.488 0-3.773 2.378-6.464 6.121-6.464s6.075 2.53 6.075 6.395m-3.052-1.757c-.338-1.595-1.458-2.613-3.024-2.613s-2.6.84-3.034 2.6c-.087.35.18.69.543.69h4.969a.56.56 0 0 0 .546-.677m18.297-4.638c-1.676 0-2.771.88-3.425 1.965a.562.562 0 0 1-.97-.007c-.642-1.106-1.756-1.958-3.39-1.958-1.261 0-2.174.482-2.821 1.189-.342.373-.967.125-.967-.38v-.532h-2.864v12.4h2.887v-7.201c0-2.37.855-3.427 2.471-3.427S99.3 8.155 99.3 10.478v7.246h2.887v-7.2c0-2.37.854-3.427 2.471-3.427s2.449 1.058 2.449 3.381v7.246h2.887V9.926h.002c0-2.83-1.294-4.877-4.066-4.877m16.975 6.395c0 .275-.024.598-.07.92v.001h-8.549a.56.56 0 0 0-.548.67c.381 1.95 1.532 2.942 3.114 2.942s2.403-.713 2.841-1.91h2.934c-.786 2.647-2.887 3.934-5.797 3.934-3.811 0-6.121-2.714-6.121-6.488 0-3.773 2.378-6.464 6.121-6.464s6.075 2.53 6.075 6.395m-3.052-1.757c-.338-1.595-1.458-2.613-3.025-2.613s-2.599.84-3.034 2.6c-.086.35.181.69.544.69h4.968a.56.56 0 0 0 .547-.677m10.675-4.637c-1.323 0-2.294.488-2.98 1.216-.35.37-.971.132-.971-.376v-.564h-2.864v12.4h2.887v-7.201c0-2.37.994-3.427 2.633-3.427s2.633 1.034 2.633 3.381v7.246h2.888V9.927c0-2.762-1.363-4.878-4.226-4.878m9.657 10.538.001-.002c-1.062 0-1.687-.345-1.687-1.54V7.998c0-.308.25-.557.559-.557h2.397V5.326h-2.397a.56.56 0 0 1-.559-.556V2.382h-2.887v11.801c0 2.416 1.779 3.543 4.088 3.543h1.801v-2.14z"/></g></svg>
